X: 25249
T: Man From Bunclody, The
R: hornpipe
M: 4/4
K: Dmajor
|de|:fAdf edB^A|B/c/d A^G ~A3 A|BDGB AFAd|g/f/e fd e2de|
fAdf edB^A|B/c/d A^G ~A3A|~B3 d Adfd|1 gfec d2de:|2 gfec d2 c2||
|:~B3A BAGB|A~D3 A~D3|BAGB ~A3f|gAfA edBA|
~B3A BAGB|A~D3 ADFA|G~B3 FAdf|1 gfec d2 c2:|2 g/a/b ag fede||

